logos/aws-systems-manager.svg

<?xml version="1.0" encoding="UTF-8"?>
<svg width="256px" height="256px" viewBox="0 0 256 256" version="1.1" xmlns="http://www.w3.org/2000/svg" xmlns:xlink="http://www.w3.org/1999/xlink" preserveAspectRatio="xMidYMid">
    <title>AWS Systems Manager</title>
    <defs>
        <linearGradient x1="0%" y1="100%" x2="100%" y2="0%" id="linearGradient-1">
            <stop stop-color="#B0084D" offset="0%"></stop>
            <stop stop-color="#FF4F8B" offset="100%"></stop>
        </linearGradient>
    </defs>
    <g>
        <rect fill="url(#linearGradient-1)" x="0" y="0" width="256" height="256"></rect>
        <path d="M150.4,175.993789 L192,175.993789 L192,182.394744 L150.4,182.394744 L150.4,188.7957 L144,188.7957 L144,182.394744 L131.2,182.394744 L131.2,175.993789 L144,175.993789 L144,172.793311 L150.4,172.793311 L150.4,175.993789 Z M163.2,156.790922 L192,156.790922 L192,163.191878 L163.2,163.191878 L163.2,169.592833 L156.8,169.592833 L156.8,163.191878 L131.2,163.191878 L131.2,156.790922 L156.8,156.790922 L156.8,153.590444 L163.2,153.590444 L163.2,156.790922 Z M179.2,137.588056 L192,137.588056 L192,143.989011 L179.2,143.989011 L179.2,150.389967 L172.8,150.389967 L172.8,143.989011 L131.2,143.989011 L131.2,137.588056 L172.8,137.588056 L172.8,134.387578 L179.2,134.387578 L179.2,137.588056 Z M67.2,150.389967 L96,150.389967 L96,156.790922 L67.2,156.790922 C63.184,156.790922 58.8928,155.584342 55.7216,153.564841 C49.2576,149.471429 38.4,139.889199 38.4,121.732889 C38.4,99.7136016 53.328,91.6323952 62.016,88.7999722 L61.8432,85.8683347 C61.8368,67.7312272 73.8368,49.1332509 89.7472,42.421849 C108.3808,34.5006662 128.1152,38.4244522 142.544,52.919416 C147.0208,57.4032854 150.7072,62.8729018 153.5296,69.2194493 C159.1968,64.4987446 166.912,62.8825034 174.08,65.2348544 C183.1904,68.2241008 188.8608,76.6445578 189.5264,87.9806499 C198.608,90.1537744 217.6,97.6268899 217.6,122.020932 C217.6,122.933068 217.5648,123.813199 217.5296,124.654925 L211.1328,124.4853 C211.1648,123.630772 211.2,122.843454 211.2,122.020932 C211.2,100.472115 193.4176,95.0601069 185.7728,93.7351091 C184.9088,93.5846867 184.1472,93.0918131 183.6608,92.3653046 C183.1776,91.6451971 183.008,90.7618653 183.1872,89.9137386 C183.0944,80.3731142 179.0592,73.6041037 172.0832,71.3157622 C165.8336,69.257855 158.9664,71.5269936 154.9888,76.9422022 C154.2848,77.892744 153.1296,78.3888182 151.9424,78.2095914 C150.7712,78.0399661 149.792,77.2334458 149.3952,76.1164787 C146.7296,68.6177594 142.8992,62.3352214 138.0128,57.4416909 C125.4912,44.8606128 108.3744,41.4553046 92.2432,48.317129 C78.7776,53.9947763 68.2368,70.4068266 68.2368,85.6795066 L68.5536,90.9730966 C68.6432,92.5029251 67.6352,93.8823309 66.1472,94.2599875 C58.176,96.2890902 44.8,102.555626 44.8,121.732889 C44.8,136.067828 52.6016,144.014615 59.152,148.159234 C61.312,149.53864 64.3936,150.389967 67.2,150.389967 L67.2,150.389967 Z M211.2,167.416508 L205.5552,167.09326 C204.0416,167.013248 202.5984,168.056604 202.2528,169.586432 C201.1712,174.380748 199.2896,178.925427 196.6592,183.092449 C195.824,184.417446 196.0672,186.148905 197.2384,187.19226 L201.4528,190.949621 L190.9536,201.45359 L187.2064,197.251362 C186.1632,196.076787 184.4256,195.839952 183.1104,196.675276 C178.944,199.306069 174.3968,201.19115 169.5904,202.276112 C168.0672,202.621764 167.0112,204.020373 167.104,205.582206 L167.424,211.199044 L152.576,211.199044 L152.896,205.575805 C152.9888,204.013972 151.9328,202.615363 150.4096,202.269711 C145.616,201.18795 141.0688,199.299668 136.896,196.665675 C135.5744,195.82715 133.84,196.067186 132.8,197.241761 L129.0432,201.450389 L118.5472,190.949621 L122.7552,187.198661 C123.9232,186.155306 124.1664,184.423847 123.3312,183.10205 C120.704,178.935028 118.8224,174.390349 117.7408,169.586432 C117.3984,168.056604 115.8688,167.013248 114.4384,167.09326 L108.8,167.416508 L108.8,152.566292 L114.4576,152.88954 C115.9456,152.972752 117.4112,151.926196 117.76,150.399568 C118.8448,145.614854 120.7296,141.076576 123.36,136.912755 C124.1952,135.587757 123.9488,133.853098 122.784,132.812943 L118.5472,129.033179 L129.0464,118.532411 L132.8256,122.766643 C133.8688,123.931617 135.6032,124.171653 136.9184,123.339529 C141.0784,120.718337 145.616,118.839657 150.4096,117.757895 C151.9328,117.412244 152.9888,116.013635 152.896,114.451802 L152.576,108.783756 L167.424,108.783756 L167.104,114.458203 C167.0112,116.020036 168.0672,117.415444 169.5904,117.761096 C174.3744,118.846058 178.9088,120.724738 183.0752,123.34913 C184.3904,124.184455 186.128,123.941218 187.168,122.776244 L190.9536,118.532411 L201.4528,129.033179 L197.2256,132.803341 C196.0608,133.846697 195.8144,135.578156 196.6496,136.903153 C199.28,141.066975 201.1648,145.608453 202.2464,150.399568 C202.592,151.922996 204.0416,152.972752 205.5488,152.88954 L211.2,152.566292 L211.2,167.416508 Z M214.2176,145.982909 L207.8144,146.347763 C206.7744,142.683216 205.312,139.15949 203.4528,135.824592 L208.2432,131.551955 C208.8992,130.966267 209.2864,130.137343 209.312,129.254012 C209.3376,128.377081 208.9984,127.522553 208.3744,126.90166 L193.0848,111.609777 C192.464,110.985684 191.5776,110.627231 190.7328,110.675238 C189.8496,110.700842 189.0208,111.084899 188.4352,111.740997 L184.1472,116.548115 C180.816,114.691837 177.2992,113.23562 173.6416,112.192264 L174.0064,105.765705 C174.0576,104.885574 173.744,104.024645 173.136,103.384549 C172.5344,102.744454 171.6928,102.3828 170.8128,102.3828 L149.1872,102.3828 C148.3072,102.3828 147.4656,102.744454 146.864,103.384549 C146.256,104.024645 145.9424,104.885574 145.9936,105.765705 L146.3584,112.185863 C142.6944,113.226019 139.1744,114.685436 135.8464,116.538513 L131.5648,111.740997 C130.9792,111.084899 130.1504,110.700842 129.2672,110.675238 C128.3616,110.633632 127.536,110.985684 126.9152,111.609777 L111.6256,126.90166 C111.0016,127.522553 110.6624,128.377081 110.688,129.254012 C110.7136,130.134143 111.1008,130.966267 111.7568,131.551955 L116.5568,135.834194 C114.6976,139.169092 113.2352,142.686417 112.192,146.347763 L105.7824,145.982909 C104.9248,145.9253 104.0416,146.248548 103.4016,146.850238 C102.7616,147.455129 102.4,148.296854 102.4,149.176986 L102.4,170.805814 C102.4,171.685946 102.7616,172.527671 103.4016,173.132562 C104.0416,173.734252 104.928,174.047898 105.7824,173.999891 L112.1696,173.635037 C113.2096,177.309185 114.6688,180.836112 116.528,184.17421 L111.7568,188.427645 C111.1008,189.013332 110.7136,189.845457 110.688,190.725588 C110.6624,191.605719 111.0016,192.460247 111.6256,193.08114 L126.9152,208.373023 C127.536,208.997116 128.4416,209.339567 129.2672,209.310763 C130.1504,209.285159 130.9824,208.897901 131.5648,208.241803 L135.8208,203.46669 C139.1584,205.332569 142.688,206.798388 146.3552,207.841743 L145.9936,214.217095 C145.9424,215.094026 146.256,215.954955 146.864,216.598251 C147.4656,217.238346 148.3072,217.6 149.1872,217.6 L170.8128,217.6 C171.6928,217.6 172.5344,217.238346 173.1392,216.598251 C173.744,215.954955 174.0576,215.094026 174.0064,214.217095 L173.6448,207.848144 C177.3184,206.801588 180.848,205.33897 184.1856,203.476292 L188.4352,208.241803 C189.0176,208.897901 189.8496,209.285159 190.7328,209.310763 C191.5872,209.349168 192.464,208.997116 193.0848,208.373023 L208.3744,193.08114 C208.9984,192.460247 209.3376,191.605719 209.312,190.725588 C209.2864,189.845457 208.8992,189.013332 208.24,188.427645 L203.4624,184.167809 C205.3216,180.829711 206.7808,177.302784 207.824,173.635037 L214.2176,173.999891 C215.0816,174.047898 215.9584,173.734252 216.5984,173.132562 C217.2384,172.527671 217.6,171.685946 217.6,170.805814 L217.6,149.176986 C217.6,148.296854 217.2384,147.455129 216.5984,146.850238 C215.9584,146.248548 215.0848,145.9285 214.2176,145.982909 L214.2176,145.982909 Z" fill="#FFFFFF"></path>
    </g>
</svg>

<svg width="256" height="256" xmlns="http://www.w3.org/2000/svg" preserveAspectRatio="xMidYMid">
	<defs>
		<linearGradient x1="0%" y1="100%" x2="100%" y2="0%" id="a">
			<stop stop-color="#B0084D" offset="0%"/>
			<stop stop-color="#FF4F8B" offset="100%"/>
		</linearGradient>
	</defs>
	<path fill="url(#a)" d="M0 0h256v256H0z"/>
	<path d="M150.4 175.994H192v6.4h-41.6v6.402H144v-6.401h-12.8v-6.401H144v-3.2h6.4v3.2Zm12.8-19.203H192v6.4h-28.8v6.402h-6.4v-6.401h-25.6v-6.401h25.6v-3.2h6.4v3.2Zm16-19.203H192v6.401h-12.8v6.401h-6.4v-6.401h-41.6v-6.4h41.6v-3.201h6.4v3.2Zm-112 12.802H96v6.4H67.2c-4.016 0-8.307-1.206-11.478-3.225-6.464-4.094-17.322-13.676-17.322-31.832 0-22.02 14.928-30.1 23.616-32.933l-.173-2.932c-.006-18.137 11.994-36.735 27.904-43.446 18.634-7.921 38.368-3.998 52.797 10.497 4.477 4.484 8.163 9.954 10.986 16.3 5.667-4.72 13.382-6.336 20.55-3.984 9.11 2.99 14.78 11.41 15.446 22.746 9.082 2.173 28.074 9.646 28.074 34.04 0 .912-.035 1.792-.07 2.634l-6.397-.17c.032-.854.067-1.642.067-2.464 0-21.549-17.782-26.96-25.427-28.286a3.196 3.196 0 0 1-2.112-1.37 3.207 3.207 0 0 1-.474-2.451c-.093-9.54-4.128-16.31-11.104-18.598-6.25-2.058-13.117.211-17.094 5.626a3.184 3.184 0 0 1-3.047 1.268 3.19 3.19 0 0 1-2.547-2.094c-2.665-7.498-6.496-13.78-11.382-18.674-12.522-12.581-29.639-15.987-45.77-9.125-13.465 5.678-24.006 22.09-24.006 37.363l.317 5.293a3.198 3.198 0 0 1-2.407 3.287c-7.971 2.03-21.347 8.296-21.347 27.473 0 14.335 7.802 22.282 14.352 26.426 2.16 1.38 5.242 2.231 8.048 2.231Zm144 17.027-5.645-.324c-1.513-.08-2.957.964-3.302 2.493a42.944 42.944 0 0 1-5.594 13.506 3.2 3.2 0 0 0 .58 4.1l4.214 3.758-10.5 10.504-3.747-4.203a3.192 3.192 0 0 0-4.096-.576 42.981 42.981 0 0 1-13.52 5.601 3.2 3.2 0 0 0-2.486 3.306l.32 5.617h-14.848l.32-5.623a3.2 3.2 0 0 0-2.486-3.306 42.99 42.99 0 0 1-13.514-5.604 3.187 3.187 0 0 0-4.096.576l-3.757 4.208-10.496-10.5 4.208-3.751a3.2 3.2 0 0 0 .576-4.097 42.97 42.97 0 0 1-5.59-13.516c-.343-1.53-1.872-2.573-3.303-2.493l-5.638.324v-14.85l5.658.323c1.488.083 2.953-.964 3.302-2.49a42.992 42.992 0 0 1 5.6-13.487 3.207 3.207 0 0 0-.576-4.1l-4.237-3.78 10.5-10.5 3.779 4.234a3.203 3.203 0 0 0 4.092.573 42.995 42.995 0 0 1 13.492-5.582 3.2 3.2 0 0 0 2.486-3.306l-.32-5.668h14.848l-.32 5.674a3.196 3.196 0 0 0 2.486 3.303 43.132 43.132 0 0 1 13.485 5.588 3.198 3.198 0 0 0 4.093-.573l3.786-4.244 10.499 10.501-4.227 3.77a3.207 3.207 0 0 0-.576 4.1 42.9 42.9 0 0 1 5.596 13.497c.346 1.523 1.796 2.573 3.303 2.49l5.651-.324v14.85Zm3.018-21.434-6.404.365a49.15 49.15 0 0 0-4.361-10.523l4.79-4.273a3.202 3.202 0 0 0 1.069-2.298 3.192 3.192 0 0 0-.938-2.352l-15.29-15.292c-.62-.624-1.506-.983-2.351-.935a3.198 3.198 0 0 0-2.298 1.066l-4.288 4.807a49.384 49.384 0 0 0-10.505-4.356l.364-6.426a3.186 3.186 0 0 0-.87-2.381 3.188 3.188 0 0 0-2.323-1.002h-21.626c-.88 0-1.721.361-2.323 1.002a3.186 3.186 0 0 0-.87 2.38l.364 6.42a49.22 49.22 0 0 0-10.512 4.354l-4.281-4.798a3.198 3.198 0 0 0-2.298-1.066c-.905-.041-1.731.31-2.352.935l-15.29 15.292a3.192 3.192 0 0 0-.937 2.352c.026.88.413 1.712 1.069 2.298l4.8 4.282a49.317 49.317 0 0 0-4.365 10.514l-6.41-.365a3.214 3.214 0 0 0-2.38.867 3.2 3.2 0 0 0-1.002 2.327v21.629a3.2 3.2 0 0 0 1.002 2.327c.64.601 1.526.915 2.38.867l6.388-.365a49.132 49.132 0 0 0 4.358 10.54l-4.771 4.253a3.208 3.208 0 0 0-1.069 2.298c-.026.88.314 1.734.938 2.355l15.29 15.292a3.26 3.26 0 0 0 2.351.938 3.195 3.195 0 0 0 2.298-1.07l4.256-4.774a49.116 49.116 0 0 0 10.534 4.375l-.361 6.375a3.195 3.195 0 0 0 .87 2.381 3.188 3.188 0 0 0 2.323 1.002h21.626a3.2 3.2 0 0 0 3.193-3.383l-.361-6.369a49.348 49.348 0 0 0 10.54-4.372l4.25 4.766a3.195 3.195 0 0 0 2.298 1.069c.854.038 1.731-.314 2.352-.938l15.29-15.292a3.195 3.195 0 0 0-.135-4.653l-4.778-4.26a49.391 49.391 0 0 0 4.362-10.533l6.394.365a3.243 3.243 0 0 0 2.38-.867 3.2 3.2 0 0 0 1.002-2.327v-21.629a3.2 3.2 0 0 0-1.002-2.327 3.213 3.213 0 0 0-2.38-.867Z" fill="#FFF"/>
</svg>
